X:1
T:Lord, Give Us Souls
T:George Bennard, 1918
T:Lord, Give Us Souls
T:Public Domain
T:Public Domain
C:George Bennard, 1918
Z:Public Domain
%%score ( 1 2 ) ( 3 4 )
L:1/8
M:6/8
K:Ab
V:1 treble 
V:2 treble 
V:3 bass 
V:4 bass 
V:1
 [CE][CF][CG] [EA][EB][Ec] | [FB][EA][EG] [EA]3 | [EA]>[EG][DF] [DG]3 | [DB]>[CA][DG] [CA]3 | %4
w: 1.~Ga- thered are we in the|name of our God,|Lord, give us souls,|Lord, give us souls;|
w: 2.~Loved ones are lost, and our|friends are a- stray,|Lord, give us souls,|Lord, give us souls;|
w: 3.~Come, Ho- ly Ghost, on Thy|peo- ple de- scend,|Lord, give us souls,|Lord, give us souls;|
w: 4.~Har- vest is pass- ing, yes,|soon ’twill be gone,|Lord, give us souls,|Lord, give us souls;|
 [CE][CF][CG] [EA][EB][Ec] | [FB][EA][DG] [CA]3 | [=DG][DF][DG] [DB]2 [DF] | (E2 =D [_DE]3) || %8
w: Trust- ing His grace and His|won- der- ful Word,|Lord, give us souls, we|pray. * *|
w: Help us to win them while|yet it is day,|Lord, give us souls, we|pray. * *|
w: Make our hearts ho- ly, Thy|king- dom ex- tend,|Lord, give us souls, we|pray. * *|
w: Bring us at last to our|heav- en- ly home,|Lord, give us souls, we|pray. * *|
"^Refrain" [DB][DB][DB] [DB][DE][DE] | [CA][CA][DA] [CA]3 | [DB][DB][DB] [DB][DE][DE] | %11
w: |||
w: |||
w: to our la- bor, and souls|for our hire, This|bless- èd Lord, is our one|
w: |||
 [CE][EA][EB] [Ec]3 | [Ec][Ec][Ec] [Ec][EB][EA] | [FB][FA][DF] [Fd]3 | [Ec][Ec][Ec] [DB]2 [DE] | %15
w: ||||
w: ||||
w: great de- sire; Souls|for whom Je- sus His pre-|cious life gave, Lord,|give us souls, we pray.|
w: ||||
 (C2 D [CA]2) z |] %16
w: |
w: |
w: |
w: |
V:2
 x6 | x6 | x6 | x6 | x6 | x6 | x6 | B3 x3 || x6 | x6 | x6 | x6 | x6 | x6 | x6 | A3- x3 |] %16
w: ||||||||||||||||
w: ||||||||||||||||
w: |||||||Seals|||||||||
V:3
 [A,,A,][A,,A,][A,,A,] [C,A,][B,,G,][A,,A,] | [D,A,][E,C][E,D] [A,,C]3 | %2
 [B,,D]>[B,,D][B,,B,] [E,B,]3 | [E,G,]>[E,A,][E,B,] [A,,A,]3 | %4
 [A,,A,][A,,A,][A,,A,] [D,A,][B,,G,][A,,A,] | [D,A,][E,C][E,B,] [F,A,]3 | %6
 [B,,B,][B,,B,][B,,B,] [B,,F,]2 [B,,B,] | ([E,G,]2 [F,A,] [E,G,]3) || %8
 [E,G,][E,G,][E,G,] [E,G,][E,G,][E,G,] | [A,,A,][A,,E,][A,,F,] (E,2 A,) | %10
 [E,G,][E,G,][E,G,] [E,G,][E,G,][E,G,] | [E,A,][C,A,][B,,G,] [A,,A,]3 | %12
 [A,,A,][A,,A,][A,,A,] [A,,A,][B,,G,][C,A,] | [D,A,][D,A,][D,A,] [B,,B,]3 | %14
 [E,A,][E,A,][E,A,] [E,G,]2 [E,G,] | ([A,,-A,]2 F, [A,,E,]2) z |] %16
V:4
 x6 | x6 | x6 | x6 | x6 | x6 | x6 | x6 || x6 | x3 A,,3 | x6 | x6 | x6 | x6 | x6 | x6 |] %16

